packages/core/src/svgs/tokens/branded/CARAT.svg

<svg width="24" height="24" viewBox="0 0 24 24" fill="none" xmlns="http://www.w3.org/2000/svg">
<path fill-rule="evenodd" clip-rule="evenodd" d="M9.49998 7C5.005 7.94 2.675 12.3899 2 14.5C2.36 13.75 4.7 12 5.82 11.22L5.49999 12L6.94499 11.685L6.04499 12.155C6.58499 11.9699 8.81499 12.08 9.86494 12.155C8.06499 12.155 6.56499 12.765 6.04499 13C7.79499 12.72 9.31499 12.5999 10.56 12.545L8.99999 16.25H9.76496L10.175 15H10.9849L11.185 16.25H11.9999L10.595 12.54C11.57 12.5 12.375 12.5 13 12.5L13.6849 12.155L15.25 12.5L15.355 12.505C15.545 12.52 15.865 12.545 16.155 12.3899C16.5149 12.205 17.205 12.34 17.4999 12.5H16C16 12.5 16.25 12.625 16.25 12.82C16.25 13.0199 15.585 13.7199 15.25 14.05V13.56C15.25 13.165 15.415 12.905 15.4999 12.82H14.5V15.765C14.5 16.155 14.335 16.255 14.25 16.255H15.4999L15.25 15.765V14.785C15.415 14.9449 15.8 15.37 16 15.765C16.1999 16.155 16.085 16.255 16 16.255L17.4999 16.5H18.435L18.665 15.425L19.5999 15.65L20 16.75L20.9999 17L19.135 12.5L17.4999 16.5L16 14.54L17.4999 12.5L18.18 11.45C18.03 11.3749 17.865 11.22 18.4049 11.22C18.945 11.22 21.025 13.4 22 14.5C21.2799 10.375 16.32 7.78001 13.9999 7L14.5 8.5C14.5 8.5 17.28 9.58 17.28 9.815C17.28 9.93 17.225 10.045 17.17 10.165C17.1099 10.28 17.055 10.4 17.055 10.515C17.055 10.595 17.14 10.65 17.2549 10.725C17.405 10.825 17.5999 10.9549 17.73 11.22L16.3799 10.28H15.93C15.7799 10.28 15.51 9.93999 15.285 9.655C15.1899 9.53001 15.1 9.415 15.035 9.345C14.855 9.155 14.2099 9.58 13.91 9.81C13.46 9.11001 12.475 8.25 12.25 8.25C12.0699 8.25 11.29 9.03 10.99 9.345H10.315C10.2 9.345 10.09 9.46001 9.97997 9.58C9.86494 9.695 9.75504 9.81 9.63998 9.81C9.52999 9.81 9.41498 9.695 9.30499 9.58C9.18999 9.46001 9.07998 9.345 8.96499 9.345C8.78498 9.345 8.43999 9.655 8.28999 9.81H7.83998L6.94 10.515L6.72 10.045C6.53999 9.485 8.09999 8.815 8.99999 8.5L9.49998 7ZM11.9999 8.875L10.99 10.045L11.4399 10.515L12.5599 9.58H11.9999V8.875ZM8.73998 9.815V10.515L8.51499 10.28L8.73998 9.815ZM8.06499 10.28L6.49999 11.22L8.06999 10.75V10.28H8.06499ZM7.39499 11.6899L10.315 10.045L9.86494 10.75H10.99L9.63998 11.45L9.18999 11.22L7.38999 11.685L7.39499 11.6899ZM13.01 9.815L14.585 11.215L13.46 10.75L13.01 9.81V9.815ZM14.81 9.815L14.1349 10.045L14.81 10.28L15.035 10.515L14.81 9.815ZM15.485 10.515L16.385 11.215L15.485 10.985V10.515ZM12.335 10.75L10.315 11.6899L12.335 10.985L13.235 11.685H13.46L13.235 11.22H13.01L12.335 10.75ZM4.3 16.775L3.5 17L5.09999 12.5L6.49999 16.5H5.69999L5.49999 15.425L4.7 15.65L4.3 16.775ZM6.49999 16.5L8.74999 16.265L8.99999 15.335C8.79998 15.52 7.91499 15.72 7.49999 15.8V13.7C7.49999 13.325 7.66498 13.08 7.74999 13H6.49999C6.74999 13.25 6.74999 13.35 6.74999 13.55V15.8C6.74999 16.175 6.58499 16.42 6.49999 16.5ZM4.9 14.75L5.09999 14.075L5.29999 14.75H4.9ZM19.135 14.075L19.365 14.75H18.8999L19.135 14.075ZM13.9999 13.56C13.915 13.395 13.67 13 13.25 13C13 13 12.75 13.065 12.75 13.315C12.75 13.4 12.95 13.59 13.205 13.83C13.6449 14.2449 14.25 14.81 14.25 15.275C14.25 16.01 13.56 16.255 13 16.255C12.685 16.255 12.435 16.155 12.25 16.085C12.1712 16.0469 12.0867 16.0215 11.9999 16.01V15.275L12.18 15.41C12.38 15.5749 12.62 15.76 13 15.76C13.42 15.76 13.5 15.52 13.5 15.275C13.5 15.115 13.235 14.8749 12.93 14.59C12.505 14.205 11.9999 13.74 11.9999 13.315C11.9999 12.33 13.5 12.33 13.9999 12.82V13.56ZM10.54 14.05L10.315 14.62H10.765L10.54 14.05Z" fill="url(#paint0_linear_364_7810)"/>
<defs>
<linearGradient id="paint0_linear_364_7810" x1="11.9999" y1="7" x2="11.875" y2="16.525" gradientUnits="userSpaceOnUse">
<stop stop-color="#665420"/>
<stop offset="0.2" stop-color="#FBF0B8"/>
<stop offset="0.46" stop-color="#98763B"/>
<stop offset="0.71" stop-color="#FEF2C0"/>
<stop offset="0.86" stop-color="#AEA16D"/>
<stop offset="1" stop-color="#F2E4B8"/>
</linearGradient>
</defs>
</svg>

<svg xmlns="http://www.w3.org/2000/svg" width="24" height="24" fill="none" viewBox="0 0 24 24">
    <path fill="url(#CARAT__a)" fill-rule="evenodd" d="M9.5 7c-4.495.94-6.825 5.39-7.5 7.5.36-.75 2.7-2.5 3.82-3.28L5.5 12l1.445-.315-.9.47c.54-.185 2.77-.075 3.82 0-1.8 0-3.3.61-3.82.845 1.75-.28 3.27-.4 4.515-.455L9 16.25h.765l.41-1.25h.81l.2 1.25H12l-1.405-3.71c.975-.04 1.78-.04 2.405-.04l.685-.345 1.565.345.105.005c.19.015.51.04.8-.115.36-.185 1.05-.05 1.345.11H16s.25.125.25.32c0 .2-.665.9-1 1.23v-.49c0-.395.165-.655.25-.74h-1v2.945c0 .39-.165.49-.25.49h1.25l-.25-.49v-.98c.165.16.55.585.75.98.2.39.085.49 0 .49l1.5.245h.935l.23-1.075.935.225.4 1.1 1 .25-1.865-4.5-1.635 4-1.5-1.96 1.5-2.04.68-1.05c-.15-.075-.315-.23.225-.23S21.025 13.4 22 14.5c-.72-4.125-5.68-6.72-8-7.5l.5 1.5s2.78 1.08 2.78 1.315c0 .115-.055.23-.11.35-.06.115-.115.235-.115.35 0 .08.085.135.2.21.15.1.345.23.475.495l-1.35-.94h-.45c-.15 0-.42-.34-.645-.625a5 5 0 0 0-.25-.31c-.18-.19-.825.235-1.125.465-.45-.7-1.435-1.56-1.66-1.56-.18 0-.96.78-1.26 1.095h-.675c-.115 0-.225.115-.335.235-.115.115-.225.23-.34.23-.11 0-.225-.115-.335-.23-.115-.12-.225-.235-.34-.235-.18 0-.525.31-.675.465h-.45l-.9.705-.22-.47C6.54 9.485 8.1 8.815 9 8.5zM12 8.875l-1.01 1.17.45.47 1.12-.935H12zm-3.26.94v.7l-.225-.235zm-.675.465-1.565.94 1.57-.47v-.47zm-.67 1.41 2.92-1.645-.45.705h1.125l-1.35.7-.45-.23-1.8.465zm5.615-1.875 1.575 1.4-1.125-.465-.45-.94zm1.8 0-.675.23.675.235.225.235zm.675.7.9.7-.9-.23zm-3.15.235-2.02.94 2.02-.705.9.7h.225l-.225-.465h-.225zM4.3 16.775 3.5 17l1.6-4.5 1.4 4h-.8l-.2-1.075-.8.225zm2.2-.275 2.25-.235.25-.93c-.2.185-1.085.385-1.5.465v-2.1c0-.375.165-.62.25-.7H6.5c.25.25.25.35.25.55v2.25c0 .375-.165.62-.25.7m-1.6-1.75.2-.675.2.675zm14.235-.675.23.675H18.9zM14 13.56c-.085-.165-.33-.56-.75-.56-.25 0-.5.065-.5.315 0 .085.2.275.455.515.44.415 1.045.98 1.045 1.445 0 .735-.69.98-1.25.98-.315 0-.565-.1-.75-.17a.8.8 0 0 0-.25-.075v-.735l.18.135c.2.165.44.35.82.35.42 0 .5-.24.5-.485 0-.16-.265-.4-.57-.685-.425-.385-.93-.85-.93-1.275 0-.985 1.5-.985 2-.495zm-3.46.49-.225.57h.45z" clip-rule="evenodd"/>
    <defs>
        <linearGradient id="CARAT__a" x1="12" x2="11.875" y1="7" y2="16.525" gradientUnits="userSpaceOnUse">
            <stop stop-color="#665420"/>
            <stop offset=".2" stop-color="#FBF0B8"/>
            <stop offset=".46" stop-color="#98763B"/>
            <stop offset=".71" stop-color="#FEF2C0"/>
            <stop offset=".86" stop-color="#AEA16D"/>
            <stop offset="1" stop-color="#F2E4B8"/>
        </linearGradient>
    </defs>
</svg>
